X:1
T:Etude 11, Op 176
T:Jean-Baptiste Duvernoy c. 1802 – c. 1880 
%%score { 1 | 2 }
L:1/8
Q:1/4=114
M:4/4
K:G
V:1 treble nm="Piano" snm="Pno."
V:2 bass 
V:1
!mf!"^Molto moderato" ([Bg]2 [Bg]2 | [cg]2 [cf]2 [Ac]2 [Ac]2 | [Ac]2 [GB]2) ([Bg]2 [Bg]2 | %3
 [cg]2 [cf]2 [Ac]2 [Ac]2 | [Ac]2 [GB]2) ([Gd]2 [Gd]2 | [Ge]2 [Ge]2 [EA]2 [EA]2 | %6
 [DA]2 [DA]2) ([Ad]2 [Ad]2 | [GB]2 [GB]2 [G^c]2 [Gc]2 | [Fd]4)!p!!<(! ([Ad]2 [Bd]2 | %9
 [cd]2 [Ad]2 [Bg]2 [cg]2 | [dg]2!mf! [Bg]2)!<)!!p!!<(! ([Ad]2 [Bd]2 | [cd]2 [Ad]2 [Bg]2 [cg]2 | %12
 [dg]2!mf! [Bg]2)!<)!!<(! ([Gd]2 [Gd]2 | [Ge]2 [Ge]2) ([Ae]2 [Ae]2 | [Af]2 [Af]2) ([Bf]2 [Bf]2 | %15
 [Bg]2 [Bg]2) ([Bg]2 [Bg]2 | [cg]2!f! [cg]2)!<)!!p! ([ce]2 [ce]2 | [Bd]2 [Bd]2 [Ac]2 [Ac]2 | %18
 [GB]2 [GB]2) ([Ge]2 [Ge]2 | [Gd]2 [Bg]2 [cg]2 [cf]2 |!<(! ([Bg]2) [cf]2 [Bg]2 [cf]2 | %21
 [Bg]2 [cf]2 [Bg]2 [cf]2 |!f! [Bg]4)!<)! z4 |!ff! [dgb]4 z4 | [Bdg]4 z4 |] %25
V:2
 ([G,D]2 [G,D]2 | [A,D]2 [A,D]2 [F,D]2 [F,D]2 | [G,D]2 [G,D]2) ([G,D]2 [G,D]2 | %3
 [A,D]2 [A,D]2 [F,D]2 [F,D]2 | [G,D]2 [G,D]2) ([B,,G,]2 [B,,G,]2 | %5
 [C,G,]2 [C,G,]2 [C,G,]2 [C,G,]2 | [D,F,]2 [D,F,]2) ([D,D]2 [D,D]2 | [G,E]2 [G,E]2 [A,E]2 [A,E]2 | %8
 D4) ([F,D]2 [G,D]2 | [A,D]2 [G,D]2 [G,D]2 [A,D]2 | [B,D]2 [G,D]2) ([F,D]2 [G,D]2 | %11
 [A,D]2 [G,D]2 [G,D]2 [A,D]2 | [B,D]2 [G,D]2) ([B,,G,]2 [B,,G,]2 | %13
 [C,G,]2 [C,G,]2) ([^C,A,]2 [C,A,]2 | [D,A,]2 [D,A,]2) ([^D,B,]2 [D,B,]2 | %15
 [E,B,]2 [E,B,]2) ([=F,D]2 [F,D]2 | [E,C]2 [E,C]2) ([C,A,]2 [C,A,]2 | %17
 [D,G,]2 [D,G,]2 [D,F,]2 [D,F,]2 | [E,G,]2 [E,G,]2) ([C,A,]2 [C,A,]2 | %19
 [D,B,]2 [D,G,]2 [D,A,]2 [D,A,]2 | ([G,B,]2) [D,A,]2 [G,B,]2 [D,A,]2 | %21
 [G,B,]2 [D,A,]2 [G,B,]2 [D,A,]2 | [G,B,]4) z4 | [G,B,D]4 z4 | [G,B,D]4 z4 |] %25

